Sources/FrostedUI/Resources/Icons.xcassets/webcamOn12.imageset/webcam-on-12.svg

<svg width="12" height="12" viewBox="0 0 12 12" fill="none" xmlns="http://www.w3.org/2000/svg" data-fui-icon="true">
  <path
    d="M6.1875 1.3125C7.2909 1.3125 8.25001 1.90956 8.77051 2.7959L9.17676 2.42578L9.25977 2.35547C10.1295 1.67341 11.4374 2.2866 11.4375 3.42285V8.57715C11.4374 9.71324 10.1296 10.3268 9.25977 9.64453L9.17676 9.57422L8.77051 9.20312C8.25015 10.0899 7.29126 10.6875 6.1875 10.6875H3.5625C1.90565 10.6875 0.56261 9.3442 0.5625 7.6875V4.3125C0.562566 2.6557 1.90569 1.3125 3.5625 1.3125H6.1875ZM3.5625 2.8125C2.73411 2.8125 2.06257 3.48413 2.0625 4.3125V7.6875L2.07031 7.84082C2.14718 8.59722 2.78595 9.1875 3.5625 9.1875H6.1875C6.95511 9.1875 7.58802 8.60926 7.6748 7.86328C7.74165 7.29044 8.40468 6.96274 8.89453 7.2959L8.99023 7.37207L9.9375 8.2373V3.76172L8.99023 4.62793C8.49585 5.07923 7.74606 4.74681 7.6748 4.13574C7.58776 3.39024 6.95506 2.8125 6.1875 2.8125H3.5625Z"
    fill="currentColor"
  />
</svg>

<svg xmlns="http://www.w3.org/2000/svg" width="12" height="12" fill="none" data-fui-icon="true" viewBox="0 0 12 12"><path fill="currentColor" d="M6.188 1.313A2.99 2.99 0 0 1 8.77 2.796l.406-.37.083-.07c.87-.683 2.177-.07 2.178 1.067v5.154c0 1.136-1.308 1.75-2.178 1.068l-.083-.07-.406-.372a2.99 2.99 0 0 1-2.584 1.485H3.563a3 3 0 0 1-3-3V4.313a3 3 0 0 1 3-3zm-2.625 1.5a1.5 1.5 0 0 0-1.5 1.5v3.375l.007.153a1.5 1.5 0 0 0 1.493 1.346h2.625c.767 0 1.4-.578 1.487-1.324.067-.573.73-.9 1.22-.567l.095.076.947.865V3.762l-.947.866c-.494.451-1.244.119-1.315-.492a1.5 1.5 0 0 0-1.487-1.324z"/></svg>
